X:5132
T:Three In The Morning
M:4/4
R:Reel
L:1/8
Q:200
C:Aidan Crossey
K:Em
|:B2BA c2cA|B2BG AGEG|B2BA c2cA|BAGF EFGA|
B2BA c2cA|B2BG AGEG|c2cA B2BG|AGFG E4:||
|:B2BA c2cA|d2dB efed|B2BA c2cA|degf efed|
B2BA c2cA|d2dB efed|c2cA B2BG|AGFG E4:||
